X: 115
T:Minuet. HA.114
M:3/4
L:1/8
Q:120
S:Henry Atkinson's original MS,Hartburn,N'umberland,1694.
O:England
A:Hartburn,Northumberland
H:1/8
Z:vmp.Chris Partington.Jan.2004
K:F
c2|f2edc2|d2cBA2|B2G2c2|A2F2c2|!
f2edc2|d3ef2|g2e3f|g4:|!
|:c2|g2agfg|e2c2e2|f2gfef|d4c2|!
dcdede|f2F2G2|A2BAGF|G4c2|!
A2FGAF|GFGAGA|BABcd"b"e|c4c2|!
c2f2d2|g2e2a2|f2g2e2|f4:|]
